packages/ui-solid/icons/game_28.svg

<svg width="28" height="28" viewBox="0 0 28 28" fill="none" xmlns="http://www.w3.org/2000/svg">
<path fill-rule="evenodd" clip-rule="evenodd" d="M13.7876 4.5H14.2124C15.8157 4.49999 17.0776 4.49999 18.0996 4.57868C19.1434 4.65904 20.0142 4.8256 20.82 5.19935C22.1472 5.81501 23.2591 6.80193 24.0199 8.03437C24.4804 8.78042 24.742 9.61261 24.9371 10.6269C25.1285 11.6218 25.2676 12.8619 25.4449 14.4419L25.9761 19.176C26.0352 19.703 25.9845 20.2365 25.8269 20.7439C24.8227 23.9757 20.3804 24.5112 18.6339 21.571L17.0103 18.8375C16.9591 18.7513 16.8732 18.7086 16.7917 18.7086H11.2083C11.1268 18.7086 11.0409 18.7514 10.9897 18.8375L9.36608 21.571C7.61962 24.5112 3.17728 23.9757 2.17313 20.7439C2.01549 20.2365 1.96481 19.703 2.02393 19.176L2.55509 14.4419C2.73235 12.8619 2.87149 11.6218 3.06288 10.6269C3.25799 9.61261 3.51956 8.78042 3.9801 8.03437C4.74088 6.80193 5.85277 5.81501 7.18005 5.19935C7.98581 4.8256 8.85658 4.65904 9.90037 4.57868C10.9224 4.49999 12.1843 4.49999 13.7876 4.5ZM10.0572 6.49392C9.13568 6.56488 8.53443 6.70096 8.03529 6.93249C7.0636 7.38321 6.2438 8.10847 5.68048 9.02103C5.38945 9.49249 5.18473 10.0757 5.01094 10.9791C4.83501 11.8937 4.70334 13.0612 4.5207 14.6891L3.99396 19.3837C3.96353 19.655 3.98969 19.9294 4.07056 20.1897C4.58158 21.8344 6.78307 22.0697 7.64884 20.6121L9.27247 17.8787C9.67037 17.2088 10.4041 16.7873 11.2083 16.7873H16.7917C17.5959 16.7873 18.3296 17.2088 18.7275 17.8787L20.3512 20.6121C21.2169 22.0697 23.4184 21.8344 23.9294 20.1897C24.0103 19.9294 24.0365 19.655 24.006 19.3837L23.4793 14.6891C23.2967 13.0612 23.165 11.8937 22.9891 10.9791C22.8153 10.0757 22.6106 9.49249 22.3195 9.02103C21.7562 8.10847 20.9364 7.38321 19.9647 6.93249C19.4656 6.70096 18.8643 6.56488 17.9428 6.49392C17.0084 6.42198 15.8249 6.42128 14.17 6.42128H13.83C12.1751 6.42128 10.9916 6.42198 10.0572 6.49392ZM9.95405 9.30809C10.5013 9.30809 10.9449 9.73818 10.9449 10.2687V10.9108H11.5724C12.1196 10.9108 12.5633 11.3409 12.5633 11.8714C12.5633 12.402 12.1196 12.8321 11.5724 12.8321H10.9449V13.4741C10.9449 14.0047 10.5013 14.4348 9.95405 14.4348C9.40683 14.4348 8.96322 14.0047 8.96322 13.4741V12.8321H8.33567C7.78845 12.8321 7.34484 12.402 7.34484 11.8714C7.34484 11.3409 7.78845 10.9108 8.33567 10.9108H8.96322V10.2687C8.96322 9.73818 9.40683 9.30809 9.95405 9.30809Z" fill="#007AFF"/>
<path d="M19.3945 9.67677C19.3945 10.2368 18.9262 10.6908 18.3486 10.6908C17.771 10.6908 17.3028 10.2368 17.3028 9.67677C17.3028 9.11675 17.771 8.66276 18.3486 8.66276C18.9262 8.66276 19.3945 9.11675 19.3945 9.67677Z" fill="#007AFF"/>
<path d="M21.5963 11.8115C21.5963 12.3715 21.1281 12.8255 20.5505 12.8255C19.9728 12.8255 19.5046 12.3715 19.5046 11.8115C19.5046 11.2515 19.9728 10.7975 20.5505 10.7975C21.1281 10.7975 21.5963 11.2515 21.5963 11.8115Z" fill="#007AFF"/>
<path d="M17.1927 11.8115C17.1927 12.3715 16.7244 12.8255 16.1468 12.8255C15.5692 12.8255 15.1009 12.3715 15.1009 11.8115C15.1009 11.2515 15.5692 10.7975 16.1468 10.7975C16.7244 10.7975 17.1927 11.2515 17.1927 11.8115Z" fill="#007AFF"/>
<path d="M19.3945 13.9463C19.3945 14.5063 18.9262 14.9603 18.3486 14.9603C17.771 14.9603 17.3028 14.5063 17.3028 13.9463C17.3028 13.3863 17.771 12.9323 18.3486 12.9323C18.9262 12.9323 19.3945 13.3863 19.3945 13.9463Z" fill="#007AFF"/>
</svg>

<svg xmlns="http://www.w3.org/2000/svg" width="28" height="28" fill="none"><path fill="currentColor" fill-rule="evenodd" d="M13.788 4.5h.424c1.604 0 2.866 0 3.888.079 1.043.08 1.914.247 2.72.62a7.43 7.43 0 0 1 3.2 2.835c.46.746.722 1.579.917 2.593.191.995.33 2.235.508 3.815l.531 4.734c.06.527.009 1.06-.15 1.568-1.003 3.232-5.446 3.767-7.192.827l-1.624-2.734a.26.26 0 0 0-.218-.128h-5.584a.26.26 0 0 0-.218.128l-1.624 2.734c-1.746 2.94-6.189 2.405-7.193-.827a3.8 3.8 0 0 1-.15-1.568l.532-4.734c.177-1.58.316-2.82.508-3.815.195-1.014.457-1.847.917-2.593A7.43 7.43 0 0 1 7.18 5.2c.806-.373 1.677-.54 2.72-.62 1.022-.079 2.284-.079 3.888-.079m-3.73 1.994c-.922.07-1.524.207-2.023.438A5.47 5.47 0 0 0 5.68 9.021c-.29.471-.495 1.055-.67 1.958-.175.915-.307 2.082-.49 3.71l-.526 4.695c-.03.271-.004.545.077.806.51 1.644 2.712 1.88 3.578.422l1.623-2.733a2.25 2.25 0 0 1 1.936-1.092h5.584c.804 0 1.538.422 1.935 1.092l1.624 2.733c.866 1.458 3.067 1.222 3.578-.422.081-.26.108-.535.077-.806l-.527-4.695c-.182-1.628-.314-2.795-.49-3.71-.174-.903-.378-1.487-.67-1.958a5.47 5.47 0 0 0-2.354-2.089c-.5-.231-1.1-.367-2.022-.438-.935-.072-2.118-.073-3.773-.073h-.34c-1.655 0-2.838.001-3.773.073m-.104 2.814c.547 0 .99.43.99.96v.643h.628c.548 0 .991.43.991.96 0 .531-.443.961-.99.961h-.628v.642c0 .53-.444.96-.99.96-.548 0-.992-.43-.992-.96v-.642h-.627c-.548 0-.991-.43-.991-.96 0-.531.443-.961.99-.961h.628v-.642c0-.53.444-.96.991-.96" clip-rule="evenodd"/><path fill="currentColor" d="M19.395 9.677c0 .56-.469 1.014-1.046 1.014s-1.046-.454-1.046-1.014.468-1.014 1.046-1.014c.577 0 1.046.454 1.046 1.014m2.201 2.135c0 .56-.468 1.014-1.046 1.014-.577 0-1.045-.455-1.045-1.014 0-.56.468-1.014 1.046-1.014.577 0 1.045.454 1.045 1.014m-4.403 0c0 .56-.469 1.014-1.046 1.014S15.1 12.37 15.1 11.812c0-.56.468-1.014 1.046-1.014.577 0 1.046.454 1.046 1.014m2.203 2.134c0 .56-.469 1.014-1.046 1.014s-1.046-.454-1.046-1.014.468-1.014 1.046-1.014c.577 0 1.046.454 1.046 1.014"/></svg>
